docs/.gitbook/assets/icon-rosette-16@dark.svg

<svg width="32" height="32" viewBox="0 0 16 16" fill="none" xmlns="http://www.w3.org/2000/svg">
<rect x="0" y="0" width="16" height="16" fill="#181c1f"/>
<path fill-rule="evenodd" clip-rule="evenodd" d="M2 1.75C2 1.33579 2.33579 1 2.75 1H13.25C13.6642 1 14 1.33579 14 1.75V2.45658C14 3.45509 13.6853 4.4282 13.1007 5.23766L10.9163 8.26225C11.5883 8.97784 12 9.94085 12 11C12 13.2091 10.2091 15 8 15C5.79086 15 4 13.2091 4 11C4 9.94085 4.41165 8.97784 5.0837 8.26225L2.89927 5.23766C2.31466 4.4282 2 3.45509 2 2.45658V1.75ZM6.29664 7.37976C6.81343 7.13618 7.39081 7 8 7C8.60919 7 9.18657 7.13618 9.70336 7.37976L11.8847 4.35943C12.2762 3.81732 12.4908 3.16794 12.4997 2.5H3.50029C3.50921 3.16794 3.72377 3.81732 4.11529 4.35943L6.29664 7.37976ZM8 8.5C6.61929 8.5 5.5 9.61929 5.5 11C5.5 12.3807 6.61929 13.5 8 13.5C9.38071 13.5 10.5 12.3807 10.5 11C10.5 9.61929 9.38071 8.5 8 8.5Z" fill="#fff"/>
</svg>

<svg xmlns="http://www.w3.org/2000/svg" width="32" height="32" fill="none" viewBox="0 0 16 16"><path fill="#181c1f" d="M0 0h16v16H0z"/><path fill="#fff" fill-rule="evenodd" d="M2 1.75A.75.75 0 0 1 2.75 1h10.5a.75.75 0 0 1 .75.75v.707a4.75 4.75 0 0 1-.9 2.78l-2.184 3.025a4 4 0 1 1-5.833 0L2.9 5.238A4.75 4.75 0 0 1 2 2.457zm4.297 5.63A4 4 0 0 1 8 7c.61 0 1.187.136 1.703.38l2.182-3.02A3.25 3.25 0 0 0 12.5 2.5h-9a3.25 3.25 0 0 0 .615 1.86zM8 8.5a2.5 2.5 0 1 0 0 5 2.5 2.5 0 0 0 0-5" clip-rule="evenodd"/></svg>
